TGraphErrors/Imore.svg

<svg xmlns="http://www.w3.org/2000/svg" viewBox="0 0 1200 800" preserveAspectRatio="none" width="1200" height="800">
 <path d="M0,0H1200V800H0Z" style="fill: white;"></path>
 <g>
  <g transform="translate(120,80)">
   <path d="M0,0H960V640H0Z" style="fill: white; stroke: black; stroke-width: 1;"></path>
   <svg x="0" y="0" overflow="hidden" width="960" height="640" viewBox="0 0 960 640">
    <g>
     <g transform="translate(97,498)">
      <path style="stroke: black; stroke-width: 1; fill: none;" d="M0,0H-17l3,5v-10l-3,5M0,0H17l-3,5v-10l3,5M0,0V89l-5,-3h10l-5,3M0,0V-89l-5,3h10l-5,-3"></path>
     </g>
     <g transform="translate(271,320)">
      <path style="stroke: black; stroke-width: 1; fill: none;" d="M0,0H-35l3,5v-10l-3,5M0,0H35l-3,5v-10l3,5M0,0V44l-5,-3h10l-5,3M0,0V-44l-5,3h10l-5,-3"></path>
     </g>
     <g transform="translate(445,142)">
      <path style="stroke: black; stroke-width: 1; fill: none;" d="M0,0H-52l3,5v-10l-3,5M0,0H52l-3,5v-10l3,5M0,0V89l-5,-3h10l-5,3M0,0V-89l-5,3h10l-5,-3"></path>
     </g>
     <g transform="translate(619,409)">
      <path style="stroke: black; stroke-width: 1; fill: none;" d="M0,0H-70l3,5v-10l-3,5M0,0H70l-3,5v-10l3,5M0,0V44l-5,-3h10l-5,3M0,0V-44l-5,3h10l-5,-3"></path>
     </g>
     <g transform="translate(793,231)">
      <path style="stroke: black; stroke-width: 1; fill: none;" d="M0,0H-87l3,5v-10l-3,5M0,0H87l-3,5v-10l3,5M0,0V89l-5,-3h10l-5,3M0,0V-89l-5,3h10l-5,-3"></path>
     </g>
    </g>
   </svg>
   <g>
    <g transform="translate(0,640)">
     <path d="M0,0h960M28,-12v12m35,-12v12m34,-24v24m35,-12v12m35,-12v12m35,-12v12m35,-12v12m34,-24v24m35,-12v12m35,-12v12m35,-12v12m34,-12v12m35,-24v24m35,-12v12m35,-12v12m35,-12v12m34,-12v12m35,-24v24m35,-12v12m35,-12v12m34,-12v12m35,-12v12m35,-24v24m35,-12v12m35,-12v12m34,-12v12m35,-12v12" style="stroke: black; stroke-width: 1;"></path>
     <g font-family="Arial" font-size="28" space="preserve" fill="black" text-anchor="middle">
      <text dy=".8em" transform="translate(97,6)">
       0
      </text>
      <text dy=".8em" transform="translate(271,6)">
       1
      </text>
      <text dy=".8em" transform="translate(445,6)">
       2
      </text>
      <text dy=".8em" transform="translate(619,6)">
       3
      </text>
      <text dy=".8em" transform="translate(793,6)">
       4
      </text>
     </g>
    </g>
    <g>
     <path d="M0,0v640M18,640h-18m18,-18h-18m18,-18h-18m36,-17h-36m18,-18h-18m18,-18h-18m18,-18h-18m18,-17h-18m36,-18h-36m18,-18h-18m18,-18h-18m18,-18h-18m18,-17h-18m36,-18h-36m18,-18h-18m18,-18h-18m18,-17h-18m18,-18h-18m36,-18h-36m18,-18h-18m18,-18h-18m18,-17h-18m18,-18h-18m36,-18h-36m18,-18h-18m18,-17h-18m18,-18h-18m18,-18h-18m36,-18h-36m18,-18h-18m18,-17h-18m18,-18h-18m18,-18h-18m36,-18h-36m18,-17h-18m18,-18h-18m18,-18h-18" style="stroke: black; stroke-width: 1;"></path>
     <g font-family="Arial" font-size="28" space="preserve" fill="black" text-anchor="end">
      <text dy=".4em" transform="translate(-4,587)">
       -1
      </text>
      <text dy=".4em" transform="translate(-4,498)">
       0
      </text>
      <text dy=".4em" transform="translate(-4,409)">
       1
      </text>
      <text dy=".4em" transform="translate(-4,320)">
       2
      </text>
      <text dy=".4em" transform="translate(-4,231)">
       3
      </text>
      <text dy=".4em" transform="translate(-4,142)">
       4
      </text>
      <text dy=".4em" transform="translate(-4,53)">
       5
      </text>
     </g>
    </g>
   </g>
  </g>
  <g transform="translate(120,4)" font-family="Arial" font-size="40" space="preserve">
   <text fill="black" text-anchor="middle" dy=".8em" transform="translate(480)">
    Graph
   </text>
  </g>
 </g>
</svg>

<svg xmlns="http://www.w3.org/2000/svg" viewBox="0 0 1200 800" preserveAspectRatio="none" width="1200" height="800">
 <path d="M0,0H1200V800H0Z" style="fill: white;"></path>
 <g>
  <g transform="translate(120,80)">
   <path d="M0,0H960V640H0Z" style="fill: white; stroke: black; stroke-width: 1;"></path>
   <svg x="0" y="0" overflow="hidden" width="960" height="640" viewBox="0 0 960 640">
    <g>
     <g transform="translate(97,498)">
      <path style="stroke: black; stroke-width: 1; fill: none;" d="M0,0H-17l3,5v-10l-3,5M0,0H17l-3,5v-10l3,5M0,0V89l-5,-3h10l-5,3M0,0V-89l-5,3h10l-5,-3"></path>
     </g>
     <g transform="translate(271,320)">
      <path style="stroke: black; stroke-width: 1; fill: none;" d="M0,0H-35l3,5v-10l-3,5M0,0H35l-3,5v-10l3,5M0,0V44l-5,-3h10l-5,3M0,0V-44l-5,3h10l-5,-3"></path>
     </g>
     <g transform="translate(445,142)">
      <path style="stroke: black; stroke-width: 1; fill: none;" d="M0,0H-52l3,5v-10l-3,5M0,0H52l-3,5v-10l3,5M0,0V89l-5,-3h10l-5,3M0,0V-89l-5,3h10l-5,-3"></path>
     </g>
     <g transform="translate(619,409)">
      <path style="stroke: black; stroke-width: 1; fill: none;" d="M0,0H-70l3,5v-10l-3,5M0,0H70l-3,5v-10l3,5M0,0V44l-5,-3h10l-5,3M0,0V-44l-5,3h10l-5,-3"></path>
     </g>
     <g transform="translate(793,231)">
      <path style="stroke: black; stroke-width: 1; fill: none;" d="M0,0H-87l3,5v-10l-3,5M0,0H87l-3,5v-10l3,5M0,0V89l-5,-3h10l-5,3M0,0V-89l-5,3h10l-5,-3"></path>
     </g>
    </g>
   </svg>
   <g>
    <g transform="translate(0,640)">
     <path d="M0,0h960M28,-12V0M63,-12V0M97,-24V0M132,-12V0M167,-12V0M202,-12V0M237,-12V0M271,-24V0M306,-12V0M341,-12V0M376,-12V0M410,-12V0M445,-24V0M480,-12V0M515,-12V0M550,-12V0M584,-12V0M619,-24V0M654,-12V0M689,-12V0M723,-12V0M758,-12V0M793,-24V0M828,-12V0M863,-12V0M897,-12V0M932,-12V0" style="stroke: black; stroke-width: 1;"></path>
     <g font-family="Arial" font-size="28" space="preserve" fill="black" text-anchor="middle">
      <text dy=".8em" transform="translate(97,6)">
       0
      </text>
      <text dy=".8em" transform="translate(271,6)">
       1
      </text>
      <text dy=".8em" transform="translate(445,6)">
       2
      </text>
      <text dy=".8em" transform="translate(619,6)">
       3
      </text>
      <text dy=".8em" transform="translate(793,6)">
       4
      </text>
     </g>
    </g>
    <g>
     <path d="M0,0v640M18,640H0M18,622H0M18,604H0M36,587H0M18,569H0M18,551H0M18,533H0M18,516H0M36,498H0M18,480H0M18,462H0M18,444H0M18,427H0M36,409H0M18,391H0M18,373H0M18,356H0M18,338H0M36,320H0M18,302H0M18,284H0M18,267H0M18,249H0M36,231H0M18,213H0M18,196H0M18,178H0M18,160H0M36,142H0M18,124H0M18,107H0M18,89H0M18,71H0M36,53H0M18,36H0M18,18H0M18,0H0" style="stroke: black; stroke-width: 1;"></path>
     <g font-family="Arial" font-size="28" space="preserve" fill="black" text-anchor="end">
      <text dy=".4em" transform="translate(-4,587)">
       -1
      </text>
      <text dy=".4em" transform="translate(-4,498)">
       0
      </text>
      <text dy=".4em" transform="translate(-4,409)">
       1
      </text>
      <text dy=".4em" transform="translate(-4,320)">
       2
      </text>
      <text dy=".4em" transform="translate(-4,231)">
       3
      </text>
      <text dy=".4em" transform="translate(-4,142)">
       4
      </text>
      <text dy=".4em" transform="translate(-4,53)">
       5
      </text>
     </g>
    </g>
   </g>
  </g>
  <g transform="translate(120,4)" font-family="Arial" font-size="40" space="preserve">
   <text fill="black" text-anchor="middle" dy=".8em" transform="translate(480)">
    Graph
   </text>
  </g>
 </g>
</svg>
